optimized/24/solid/battery-50.svg

<svg xmlns="http://www.w3.org/2000/svg" viewBox="0 0 24 24">
  <path d="M4.5 9.75C4.08579 9.75 3.75 10.0858 3.75 10.5V15C3.75 15.4142 4.08579 15.75 4.5 15.75H11.25C11.6642 15.75 12 15.4142 12 15V10.5C12 10.0858 11.6642 9.75 11.25 9.75H4.5Z"/>
  <path fill-rule="evenodd" d="M3.75 6.75C2.09315 6.75 0.75 8.09315 0.75 9.75V15.75C0.75 17.4069 2.09315 18.75 3.75 18.75H18.75C20.4069 18.75 21.75 17.4069 21.75 15.75V15.7125C22.6058 15.5388 23.25 14.7821 23.25 13.875V11.625C23.25 10.7179 22.6058 9.96123 21.75 9.78751V9.75C21.75 8.09315 20.4069 6.75 18.75 6.75H3.75ZM18.75 8.25C19.5784 8.25 20.25 8.92157 20.25 9.75V15.75C20.25 16.5784 19.5784 17.25 18.75 17.25H3.75C2.92157 17.25 2.25 16.5784 2.25 15.75V9.75C2.25 8.92157 2.92157 8.25 3.75 8.25H18.75Z" clip-rule="evenodd"/>
</svg>

<svg xmlns="http://www.w3.org/2000/svg" viewBox="0 0 24 24" fill="currentColor" aria-hidden="true">
  <path d="M4.5 9.75a.75.75 0 00-.75.75V15c0 .414.336.75.75.75h6.75A.75.75 0 0012 15v-4.5a.75.75 0 00-.75-.75H4.5z"/>
  <path fill-rule="evenodd" d="M3.75 6.75a3 3 0 00-3 3v6a3 3 0 003 3h15a3 3 0 003-3v-.037c.856-.174 1.5-.93 1.5-1.838v-2.25c0-.907-.644-1.664-1.5-1.837V9.75a3 3 0 00-3-3h-15zm15 1.5a1.5 1.5 0 011.5 1.5v6a1.5 1.5 0 01-1.5 1.5h-15a1.5 1.5 0 01-1.5-1.5v-6a1.5 1.5 0 011.5-1.5h15z" clip-rule="evenodd"/>
</svg>
